dist/assets/images/card/icon-8.svg

<svg width="125" height="87" viewBox="0 0 125 87" fill="none" xmlns="http://www.w3.org/2000/svg">
<path d="M123.813 1H1V85.586H123.813V1Z" stroke="#DE1F26" stroke-miterlimit="10"/>
<path fill-rule="evenodd" clip-rule="evenodd" d="M62.6179 41.631C62.6179 45.072 63.8319 48.006 66.3619 50.537C66.9689 51.043 67.5739 51.549 68.2839 52.055C70.3059 53.469 72.6369 54.18 75.2669 54.282C77.8979 54.18 80.2239 53.469 82.3499 52.055C82.9559 51.549 83.5629 51.043 84.1709 50.537C86.6999 48.006 87.9149 45.072 87.9149 41.631C87.9149 38.09 86.7009 35.153 84.1709 32.726C81.6419 30.196 78.7059 28.981 75.2669 28.981C71.8249 28.981 68.8909 30.196 66.3619 32.726C63.8329 35.153 62.6179 38.09 62.6179 41.631ZM72.5349 39C73.2429 38.29 74.1529 37.887 75.2669 37.987C76.3799 37.887 77.1879 38.29 77.8979 39C78.6039 39.708 79.0109 40.619 79.0109 41.732C79.0109 42.744 78.6039 43.554 77.8979 44.261C77.1889 44.97 76.3799 45.374 75.2669 45.476C74.1519 45.374 73.2429 44.97 72.5349 44.261C71.8249 43.554 71.5239 42.743 71.5239 41.732C71.5239 40.619 71.8249 39.709 72.5349 39Z" fill="white"/>
<path fill-rule="evenodd" clip-rule="evenodd" d="M75.2682 37.987C74.1532 37.887 73.2432 38.29 72.5352 39C71.8272 39.708 71.5242 40.619 71.5242 41.732C71.5242 42.744 71.8272 43.554 72.5352 44.261C73.2432 44.97 74.1532 45.374 75.2682 45.476C76.3812 45.374 77.1882 44.97 77.8992 44.261C78.6072 43.554 79.0122 42.743 79.0122 41.732C79.0122 40.619 78.6072 39.709 77.8992 39C77.1882 38.29 76.3812 37.887 75.2682 37.987Z" fill="white"/>
<path fill-rule="evenodd" clip-rule="evenodd" d="M66.3771 31.1481C63.8941 33.6721 62.6321 36.7031 62.6321 40.2791C62.6321 43.8141 63.8941 46.8451 66.3771 49.3281C68.8611 51.8531 71.8901 53.1151 75.4661 53.1151C79.0441 53.1151 82.0741 51.8531 84.5561 49.3281C87.0811 46.8461 88.3441 43.8141 88.3441 40.2791C88.3441 36.7021 87.0821 33.6721 84.5561 31.1481C82.0741 28.6651 79.0431 27.4021 75.4661 27.4441C71.8901 27.4021 68.8601 28.6641 66.3771 31.1481ZM71.9741 36.7441C72.9421 35.7761 74.0781 35.2701 75.4661 35.2701C76.8561 35.2701 78.0761 35.7761 79.0441 36.7441C80.0131 37.7121 80.5171 38.8901 80.5171 40.2791C80.5171 41.6681 80.0131 42.8471 79.0441 43.8141C78.0771 44.7831 76.8561 45.2871 75.4661 45.2871C74.0781 45.2871 72.9421 44.7831 71.9741 43.8141C71.0061 42.8471 70.5011 41.6681 70.5011 40.2791C70.5011 38.8901 71.0061 37.7131 71.9741 36.7441Z" fill="#E5171B"/>
<path d="M73.4152 38.178C72.8472 38.746 72.5622 39.428 72.5622 40.279C72.5622 41.074 72.8472 41.756 73.4152 42.324C73.9842 42.89 74.6652 43.176 75.4582 43.176C76.2542 43.176 76.9362 42.891 77.5612 42.324C78.1282 41.756 78.4132 41.074 78.4132 40.279C78.4132 39.427 78.1282 38.747 77.5612 38.178C76.9362 37.61 76.2542 37.327 75.4582 37.327C74.6652 37.326 73.9832 37.61 73.4152 38.178ZM71.9392 36.758C70.9742 37.724 70.4622 38.86 70.4622 40.279C70.4622 41.699 70.9742 42.89 71.9392 43.857C72.9052 44.822 74.0972 45.277 75.4592 45.277C76.8792 45.277 78.0722 44.822 79.0382 43.857C80.0022 42.89 80.5142 41.699 80.5142 40.279C80.5142 38.86 80.0022 37.724 79.0382 36.758C78.0722 35.792 76.8792 35.282 75.4592 35.282C74.0972 35.283 72.9042 35.793 71.9392 36.758Z" stroke="#0000BD" stroke-linecap="round" stroke-linejoin="round"/>
<path d="M32 55.1561L75.087 55.1771M73.845 25.3811L32.14 25.4161L73.845 25.3811Z" stroke="#0000BD"/>
<path d="M64.871 29.73C61.988 32.617 60.458 36.0081 60.458 40.2501C60.458 44.4941 61.988 48.057 64.87 50.941C67.757 53.824 71.32 55.1851 75.389 55.1851C79.632 55.1851 83.197 53.824 86.082 50.941C88.965 48.056 90.494 44.4961 90.494 40.2501C90.494 36.0081 88.964 32.617 86.082 29.731C83.196 26.844 79.632 25.3201 75.389 25.3201C71.32 25.3201 67.756 26.845 64.871 29.73Z" stroke="#0000BD" stroke-linecap="round" stroke-linejoin="round"/>
<path d="M66.4221 31.268C63.9611 33.733 62.6541 36.628 62.6541 40.249C62.6541 43.874 63.9611 46.915 66.4221 49.378C68.8861 51.839 71.9281 53.001 75.4021 53.001C79.0251 53.001 82.0681 51.839 84.5321 49.378C86.9931 46.915 88.2991 43.874 88.2991 40.249C88.2991 36.628 86.9931 33.732 84.5321 31.268C82.0681 28.804 79.0251 27.502 75.4021 27.502C71.9271 27.503 68.8851 28.805 66.4221 31.268Z" stroke="#0000BD" stroke-linecap="round" stroke-linejoin="round"/>
<path d="M72.793 68.5601L74.189 61.8101H75.811L77.205 68.5601H76.115L75.821 67.0311H74.181L73.882 68.5601H72.793ZM74.369 66.0431H75.63L74.997 62.791L74.369 66.0431Z" fill="#0000BD"/>
<path d="M64.5 18.0677L77.6633 18C83.443 18.1488 88.7605 20.0665 91.5 25" stroke="#DF0112"/>
<path d="M93.3222 23.9139L92.8232 27.9162L89.1954 26.2002L93.3222 23.9139Z" stroke="#DF0112"/>
</svg>

<svg width="125" height="87" fill="none" xmlns="http://www.w3.org/2000/svg"><path d="M123.813 1H1v84.586h122.813V1z" stroke="#DE1F26" stroke-miterlimit="10"/><path fill-rule="evenodd" clip-rule="evenodd" d="M62.618 41.631c0 3.441 1.214 6.375 3.744 8.906.607.506 1.212 1.012 1.922 1.518 2.022 1.414 4.353 2.125 6.983 2.227 2.63-.102 4.957-.813 7.083-2.227l1.82-1.518c2.53-2.531 3.745-5.465 3.745-8.906 0-3.541-1.214-6.478-3.744-8.905-2.53-2.53-5.465-3.745-8.904-3.745-3.442 0-6.376 1.215-8.905 3.745-2.53 2.427-3.744 5.364-3.744 8.905zM72.535 39c.708-.71 1.618-1.113 2.732-1.013 1.113-.1 1.92.303 2.63 1.013.707.708 1.114 1.619 1.114 2.732 0 1.012-.407 1.822-1.113 2.529-.71.709-1.518 1.113-2.631 1.215-1.115-.102-2.024-.506-2.732-1.215-.71-.707-1.011-1.518-1.011-2.529 0-1.113.3-2.023 1.01-2.732z" fill="#fff"/><path fill-rule="evenodd" clip-rule="evenodd" d="M75.268 37.987c-1.115-.1-2.025.303-2.733 1.013-.708.708-1.01 1.619-1.01 2.732 0 1.012.302 1.822 1.01 2.529.708.709 1.618 1.113 2.733 1.215 1.113-.102 1.92-.506 2.631-1.215.708-.707 1.113-1.518 1.113-2.529 0-1.113-.405-2.023-1.113-2.732-.71-.71-1.518-1.113-2.63-1.013z" fill="#fff"/><path fill-rule="evenodd" clip-rule="evenodd" d="M66.377 31.148c-2.483 2.524-3.745 5.555-3.745 9.131 0 3.535 1.262 6.566 3.745 9.05 2.484 2.524 5.513 3.786 9.09 3.786s6.607-1.262 9.09-3.787c2.524-2.482 3.787-5.514 3.787-9.049 0-3.577-1.262-6.607-3.788-9.13-2.482-2.484-5.513-3.747-9.09-3.705-3.576-.042-6.606 1.22-9.089 3.704zm5.597 5.596c.968-.968 2.104-1.474 3.492-1.474 1.39 0 2.61.506 3.578 1.474.97.968 1.473 2.146 1.473 3.535 0 1.39-.504 2.568-1.473 3.535-.967.97-2.188 1.473-3.578 1.473-1.388 0-2.524-.504-3.492-1.473-.968-.967-1.473-2.146-1.473-3.535 0-1.389.505-2.566 1.473-3.535z" fill="#E5171B"/><path d="M73.415 38.178c-.568.568-.853 1.25-.853 2.101 0 .795.285 1.477.853 2.045.57.566 1.25.852 2.043.852.796 0 1.478-.285 2.103-.852.567-.568.852-1.25.852-2.045 0-.852-.285-1.532-.852-2.101-.625-.568-1.307-.851-2.103-.851a2.783 2.783 0 00-2.043.851zm-1.476-1.42c-.965.966-1.477 2.102-1.477 3.521 0 1.42.512 2.611 1.477 3.578.966.965 2.158 1.42 3.52 1.42 1.42 0 2.613-.455 3.58-1.42.963-.967 1.475-2.158 1.475-3.578 0-1.419-.512-2.555-1.476-3.521-.966-.966-2.159-1.476-3.579-1.476-1.362.001-2.555.511-3.52 1.476z" stroke="#0000BD" stroke-linecap="round" stroke-linejoin="round"/><path d="M32 55.156l43.087.021m-1.242-29.796l-41.705.035 41.705-.035z" stroke="#0000BD"/><path d="M64.871 29.73c-2.883 2.887-4.413 6.278-4.413 10.52 0 4.244 1.53 7.807 4.412 10.691 2.887 2.883 6.45 4.244 10.519 4.244 4.243 0 7.808-1.361 10.693-4.244 2.883-2.885 4.412-6.445 4.412-10.69 0-4.243-1.53-7.634-4.412-10.52-2.886-2.887-6.45-4.41-10.693-4.41-4.069 0-7.633 1.524-10.518 4.409z" stroke="#0000BD" stroke-linecap="round" stroke-linejoin="round"/><path d="M66.422 31.268c-2.46 2.465-3.768 5.36-3.768 8.981 0 3.625 1.307 6.666 3.768 9.129 2.464 2.461 5.506 3.623 8.98 3.623 3.623 0 6.666-1.162 9.13-3.623 2.461-2.463 3.767-5.504 3.767-9.129 0-3.621-1.306-6.517-3.767-8.981-2.464-2.464-5.507-3.766-9.13-3.766-3.475.001-6.517 1.303-8.98 3.766z" stroke="#0000BD" stroke-linecap="round" stroke-linejoin="round"/><path d="M72.793 68.56l1.396-6.75h1.622l1.394 6.75h-1.09l-.294-1.529h-1.64l-.299 1.53h-1.089zm1.576-2.517h1.261l-.633-3.252-.628 3.252z" fill="#0000BD"/><path d="M64.5 18.068L77.663 18c5.78.149 11.097 2.067 13.837 7" stroke="#DF0112"/><path d="M93.322 23.914l-.499 4.002-3.628-1.716 4.127-2.286z" stroke="#DF0112"/></svg>
